X: 29575
T: Noon Lassies, The
R: reel
M: 4/4
K: Gmajor
|:B2 BABc dB|A2 AGAc BA|B2 BABc dB|AGAB ~G3 A:|
B ~d3 ~e2 dB|AGAB GE D2|B ~d3 ~e2 dB|AGAB ~G3 A|
B ~d3 e ~d3|g ~d3 ABAG|A2 AG ABcA|dBAB ~G3 A||

